packages/icons/src/SVG/move-vertical.svg

<!-- Generated by IcoMoon.io -->
<svg version="1.1" xmlns="http://www.w3.org/2000/svg" width="12" height="12" viewBox="0 0 12 12">
<title>move-vertical</title>
<path d="M5.25 7v2h-2.25l3 3 3-3h-2.25v-2h-1.5z"></path>
<path d="M5.25 5v-2h-2.25l3-3 3 3h-2.25v2h-1.5z"></path>
</svg>

<svg width="12" height="12" viewBox="0 0 12 12" fill="none" xmlns="http://www.w3.org/2000/svg">
<path d="M5.25 7V9H3L6 12L9 9H6.75V7H5.25Z" fill="#4C505B"/>
<path d="M5.25 5V3L3 3L6 0L9 3L6.75 3V5H5.25Z" fill="#4C505B"/>
</svg>
